packages/core/src/svgs/tokens/mono/RDPX.svg

<svg width="24" height="24" viewBox="0 0 24 24" fill="none" xmlns="http://www.w3.org/2000/svg">
<path d="M4.81861 8.25879L8.8127 2L2.85391 7.98232C2.35979 8.48231 2.58921 9.3352 3.27156 9.5058L6.43037 10.3059C5.79507 11.3059 5.18332 12.4823 5.14214 13.6941C5.12025 14.032 5.16911 14.3709 5.28559 14.6889C5.40206 15.007 5.58361 15.2972 5.8186 15.5411C6.57153 16.294 7.51859 16.5881 8.3127 17.2235C10.3127 18.8234 11.2068 21.7529 14.1069 21.9881C15.9009 22.1353 18.0892 20.9 18.7244 19.1763C18.9721 18.4515 18.9701 17.6646 18.7186 16.9411C18.3009 15.5646 17.4362 14.3646 17.0127 12.9882C16.6186 11.6822 16.8891 11.1176 17.0597 10.8941C17.4715 10.3529 18.6479 10.1999 19.1715 10.0235L20.3245 9.63523C20.6009 9.54108 20.9479 9.46463 21.1656 9.24702C21.6656 8.74702 21.3068 8.24702 20.9421 7.86467C19.0298 5.90449 17.1122 3.94959 15.1891 2C15.8725 3.07069 16.5529 4.14324 17.2304 5.21762L19.2068 8.33526L18.6715 8.51761C17.6597 8.85879 16.4892 9.02937 15.8009 9.92937C15.2362 10.6705 15.0009 11.8117 15.5069 13.4587C15.9303 14.8352 16.7891 16.0294 17.2067 17.4057C17.3539 17.9058 17.3656 18.2882 17.242 18.6235C16.848 19.6881 15.4421 20.3293 14.348 20.2352C11.9598 20.041 10.9363 17.294 9.3009 15.9823C8.53623 15.3764 7.64801 15.1294 6.93625 14.4176C6.79507 14.2763 6.71271 14.0705 6.72448 13.7411C6.75978 12.5469 7.57742 11.3528 8.25976 10.4353C8.65389 9.9059 8.37742 9.16467 7.75977 9.00584L4.81861 8.25879ZM11.4832 14.747C11.4832 14.747 10.2598 14.747 9.44804 13.9999C8.63624 13.2469 9.44804 11.747 9.44804 11.747C9.44804 11.747 9.6833 11.894 10.5833 12.947C11.4832 13.9999 11.4832 14.747 11.4832 14.747Z" fill="white"/>
</svg>

<svg xmlns="http://www.w3.org/2000/svg" width="24" height="24" fill="none" viewBox="0 0 24 24">
    <path fill="#fff" d="M4.819 8.259 8.813 2l-5.96 5.982c-.493.5-.264 1.353.419 1.524l3.158.8c-.635 1-1.247 2.176-1.288 3.388a2.44 2.44 0 0 0 .677 1.847c.753.753 1.7 1.047 2.494 1.683 2 1.6 2.894 4.529 5.794 4.764 1.794.147 3.982-1.088 4.617-2.812a3.43 3.43 0 0 0-.005-2.235c-.418-1.376-1.283-2.576-1.706-3.953-.394-1.306-.124-1.87.047-2.094.412-.541 1.588-.694 2.112-.87l1.152-.389c.277-.094.624-.17.842-.388.5-.5.14-1-.224-1.382Q18.074 4.925 15.19 2q1.026 1.605 2.041 3.218l1.977 3.117-.535.183c-1.012.34-2.183.511-2.871 1.411-.565.742-.8 1.883-.294 3.53.423 1.376 1.282 2.57 1.7 3.947.147.5.159.882.035 1.218-.394 1.064-1.8 1.705-2.894 1.611-2.388-.194-3.412-2.941-5.047-4.253-.765-.606-1.653-.853-2.365-1.564-.14-.142-.223-.348-.212-.677.036-1.194.853-2.388 1.536-3.306a.912.912 0 0 0-.5-1.43zm6.664 6.488s-1.223 0-2.035-.747c-.812-.753 0-2.253 0-2.253s.235.147 1.135 1.2.9 1.8.9 1.8"/>
</svg>
